src/assets/svg/paragraph-left.svg

<!-- Generated by IcoMoon.io -->
<svg version="1.1" xmlns="http://www.w3.org/2000/svg" width="32" height="32" viewBox="0 0 32 32">
<title>paragraph-left</title>
<path d="M0 2h32v4h-32zM0 8h20v4h-20zM0 20h20v4h-20zM0 14h32v4h-32zM0 26h32v4h-32z"></path>
</svg>

<svg xmlns="http://www.w3.org/2000/svg" viewBox="0 0 32 32">
  <path d="M0 2h32v4H0zm0 6h20v4H0zm0 12h20v4H0zm0-6h32v4H0zm0 12h32v4H0z"/>
</svg>
